X:1
T:Arendal, 87.87 D
T:Arendal, 87.87 D
T:Elevine Heede (1820-1883)
T:Public Domain Courtesy of the Cyber Hymnal™
C:Elevine Heede (1820-1883)
Z:Public Domain
Z:Courtesy of the Cyber Hymnal™
%%score ( 1 2 ) ( 3 4 )
L:1/8
Q:1/4=105
M:3/4
K:Bb
V:1 treble 
V:2 treble 
V:3 bass 
V:4 bass 
V:1
 [B,D][CE] | [DF]3 [DB] [EB][EG] | [DF]2 [B,D]2 F[EG] | [CF]3 [B,D] [CE][CF] | [B,D]4 [B,D][CE] | %5
 [DF]3 [FB] [GB][EG] | [DF]2 [B,D]2 [DF][FG] | [FA]3 [DB] [=EA][EG] | F4 FF | [Ec]3 [EA] [EG][EF] | %10
 [DF]2 [DB]2 F[FB] | [Fd]3 [Fd] [=Ec][EB] | [Fc]4 [EG][EF] | [DF]2 [B,D]2 [DF][FB] | %14
 [GB]2 [EG]2 [FA][EG] | [DF]2 [DB]2 [B,D][A,C] | B,4 |] %17
V:2
 x2 | x6 | x4 F x | x6 | x6 | x6 | x6 | x6 | F4 FF | x6 | x4 F x | x6 | x6 | x6 | x6 | x6 | B,4 |] %17
V:3
 [B,,F,][B,,F,] | [B,,B,]3 [B,,F,] [B,,G,][B,,A,] | [B,,B,]2 [B,,F,]2 [D,B,][E,B,] | %3
 (B,2 A,)G, [C,G,][A,,F,] | [B,,F,]4 [B,,F,][B,,F,] | [B,,B,]3 [D,B,] [E,B,][E,B,] | %6
 [B,,B,]2 [B,,F,]2 [B,,B,][=B,,D] | (C2 A,)[C,G,] [C,C][C,B,] | [F,A,]4 F,F, | %9
 [F,,A,]3 [F,,C] [F,,B,][F,,A,] | [B,,B,]2 [B,,F,]2 F,[D,F,] | [B,,B,]3 [G,,B,] [C,G,][C,G,] | %12
 [F,A,]4 [F,B,][F,A,] | [B,,B,]2 [B,,F,]2 [B,,B,][D,B,] | [E,B,]2 [E,B,]2 [C,B,][C,B,] | %15
 [F,B,]2 F,2 [F,,F,][F,,E,] | [B,,D,]4 |] %17
V:4
 x2 | x6 | x6 | F,3 G, x2 | x6 | x6 | x6 | C,3 x3 | x4 F,F, | x6 | x4 F, x | x6 | x6 | x6 | x6 | %15
 x2 F,2 x2 | x4 |] %17

